X: 574
T: Absynthe Makes The Heart Grow Fonder
R: reel
M: 4/4
K: Emajor
|:e3 e dcBA|e2 f/g/a g2 fe|z ABe ffBA|Befg a3 a|bgab c'2 e2|
a3 g/f/ e4|BABf eeBA|1 Bd e2 f2 gf:|2 Bd e2 f4||
[K:Emin] Bedc BGGG|AE F/G/A B^c^de|fe^ga beee|a3 f/e/ d4|
Bedc BGGG|AEEE EFGA|BABf eeBA|1 B^d e2 f4:|2 B^d e2 f2 ^gf||

